X:168
T: Flowers of Edinburgh
O: No 168 William Clarke of Feltwell
M:C
L:1/8
K:G
N:Transcribed M Humphreys May 2010
N: No repeat of B in MS
F>E| D2 E>F G3 A| BGdG cBAG| AGFE DEFG |AFdF E3 F|/! 
D3 E G3 A| BGBd efge| dcBA GFGA | B2 G2 G2:||:/!
d(e/f/) | gfga (ga/b/) ag| fefg (fg/a/) gf| edef gfed|/!
B2 e2e2 (ef/g/)| dBAG d2 cB| edef g2 fe|dcBA GFGA | B2 G2 G2:||

